assets/static/img/icon/ok.svg

<svg width="24" height="24" viewBox="0 0 24 24" fill="none" xmlns="http://www.w3.org/2000/svg">
	<path d="M12 4.9165C10.2528 4.9165 8.8125 6.33317 8.8125 8.10401C8.8125 9.85122 10.2292 11.2915 12 11.2915C13.7708 11.2915 15.1875 9.87486 15.1875 8.10401C15.1875 6.33317 13.7472 4.9165 12 4.9165ZM12 9.1665C11.4097 9.1665 10.9375 8.69428 10.9375 8.10401C10.9375 7.51372 11.4097 7.04151 12 7.04151C12.5903 7.04151 13.0625 7.51372 13.0625 8.10401C13.0625 8.69428 12.5903 9.1665 12 9.1665Z" fill="white" />
	<path d="M15.9195 13.4398C15.1167 13.8884 14.2431 14.1954 13.3695 14.3371L15.8487 17.3828C16.132 17.7371 16.2028 18.2329 15.9431 18.6107C15.5417 19.2245 14.6917 19.2482 14.2667 18.7051L11.9764 15.8954L9.70973 18.7051C9.49729 18.9648 9.21391 19.0828 8.90697 19.0828C8.60003 19.0828 8.29309 18.9412 8.08058 18.6579C7.82087 18.3037 7.84448 17.7134 8.12781 17.3593L10.5833 14.2899C9.70973 14.1245 8.83615 13.8412 8.05697 13.3926C7.56114 13.1092 7.39586 12.4954 7.6792 11.9759C7.96253 11.4801 8.60003 11.3148 9.09586 11.5981C10.8904 12.6134 13.1334 12.6134 14.9514 11.6218C15.4472 11.3384 16.0848 11.5273 16.3445 12.0232C16.6042 12.5426 16.4153 13.1565 15.9195 13.4398Z" fill="white" />
</svg>

<svg xmlns="http://www.w3.org/2000/svg" width="24" height="24" fill="none"><path fill="#fff" d="M12 4.917a3.19 3.19 0 0 0-3.187 3.187A3.19 3.19 0 0 0 12 11.292a3.174 3.174 0 0 0 3.188-3.188A3.19 3.19 0 0 0 12 4.917m0 4.25c-.59 0-1.062-.473-1.062-1.063S11.41 7.042 12 7.042s1.063.472 1.063 1.062S12.59 9.167 12 9.167M15.92 13.44a7.8 7.8 0 0 1-2.55.897l2.479 3.046c.283.354.354.85.094 1.228a1.03 1.03 0 0 1-1.676.094l-2.29-2.81-2.267 2.81a1.03 1.03 0 0 1-1.63-.047c-.26-.354-.236-.945.048-1.299l2.455-3.07c-.873-.165-1.747-.448-2.526-.896-.496-.284-.661-.898-.378-1.417.284-.496.921-.661 1.417-.378 1.794 1.015 4.037 1.015 5.855.024a1.013 1.013 0 0 1 1.393.401c.26.52.071 1.133-.425 1.417"/></svg>
